dist/img/svg/i-slider-top-4.svg

<svg width="28" height="28" viewBox="0 0 28 28" fill="none" xmlns="http://www.w3.org/2000/svg">
<path d="M14 1.16675C11.4263 1.16675 9.33334 3.25975 9.33334 5.83341H5.83334C4.66784 5.83341 3.69795 6.64368 3.51595 7.85002L2.3584 23.0759C2.2569 23.7433 2.4649 24.4131 2.92806 24.9148C3.37023 25.3931 4.004 25.6667 4.66667 25.6667H23.3333C23.996 25.6667 24.6298 25.3931 25.0697 24.9171C25.5352 24.4154 25.7429 23.7447 25.6507 23.1625L24.4863 7.85002L24.4749 7.76115C24.3023 6.64465 23.3322 5.83341 22.1667 5.83341H18.6667C18.6667 3.25975 16.5737 1.16675 14 1.16675ZM14 3.50008C15.2868 3.50008 16.3333 4.54658 16.3333 5.83341H11.6667C11.6667 4.54658 12.7132 3.50008 14 3.50008ZM5.83106 8.16675L22.1712 8.17358L23.3333 23.3334L4.67578 23.3403L5.83106 8.16675ZM7.78841 10.4477V19.1567H9.69564V17.4112L10.2357 16.8735L11.5732 19.1567H13.7585L11.4707 15.5473L13.6172 13.0248H11.3294L9.88933 14.8158L9.69792 15.071V10.4477H7.78841ZM16.8073 12.9132C16.301 12.9132 15.8581 13.0427 15.4766 13.3005C15.0951 13.5584 14.8023 13.9286 14.597 14.4034C14.394 14.8794 14.2917 15.428 14.2917 16.0463H14.2939V16.1147C14.2939 17.0748 14.5235 17.8399 14.9844 18.4115C15.4464 18.9844 16.0503 19.2683 16.7982 19.2683C17.3558 19.2683 17.8195 19.067 18.1859 18.6622V18.8559C18.1859 19.7239 17.7602 20.157 16.9144 20.157C16.3334 20.157 15.8654 19.9469 15.5107 19.5281L14.7109 20.6514C14.9338 20.9221 15.2559 21.1419 15.6771 21.3123C16.0983 21.4838 16.5336 21.5675 16.9828 21.5675C17.6093 21.5675 18.161 21.4631 18.637 21.2485C19.1142 21.0361 19.4754 20.7303 19.7262 20.3324C19.9794 19.9334 20.1045 19.4644 20.1045 18.9242V13.0248H18.3704L18.3021 13.558C17.9451 13.1275 17.4455 12.9132 16.8073 12.9132ZM17.2949 14.3852C17.7033 14.3852 17.9993 14.5256 18.1836 14.8044V17.3816C17.9946 17.6569 17.6942 17.7963 17.2835 17.7963C16.9429 17.7963 16.6784 17.6494 16.4906 17.3565C16.3016 17.0649 16.2057 16.6665 16.2057 16.1648C16.2057 15.5861 16.3038 15.1454 16.4951 14.8409C16.6888 14.5376 16.9543 14.3852 17.2949 14.3852Z" fill="#F8F8F8"/>
</svg>

<svg width="28" height="28" viewBox="0 0 28 28" fill="none" xmlns="http://www.w3.org/2000/svg"><path d="M14 1.167a4.671 4.671 0 00-4.667 4.666h-3.5c-1.165 0-2.135.81-2.317 2.017L2.358 23.076a2.21 2.21 0 00.57 1.839 2.37 2.37 0 001.739.752h18.666a2.37 2.37 0 001.737-.75c.465-.502.673-1.172.58-1.755L24.487 7.85l-.011-.089c-.173-1.116-1.143-1.928-2.308-1.928h-3.5A4.671 4.671 0 0014 1.167zM14 3.5a2.336 2.336 0 012.333 2.333h-4.666A2.336 2.336 0 0114 3.5zM5.831 8.167l16.34.007 1.162 15.16-18.657.006L5.83 8.167zm1.957 2.28v8.71h1.908V17.41l.54-.538 1.337 2.284h2.185l-2.287-3.61 2.146-2.522H11.33l-1.44 1.79-.191.256v-4.623h-1.91zm9.02 2.466c-.507 0-.95.13-1.331.387-.382.258-.675.629-.88 1.103-.203.476-.305 1.025-.305 1.643h.002v.069c0 .96.23 1.725.69 2.297.462.572 1.066.856 1.814.856a1.79 1.79 0 001.388-.606v.194c0 .868-.426 1.301-1.272 1.301-.58 0-1.049-.21-1.403-.629l-.8 1.123c.223.271.545.49.966.661a3.43 3.43 0 001.306.255c.626 0 1.178-.104 1.654-.319a2.405 2.405 0 001.09-.916c.252-.399.378-.868.378-1.408v-5.9H18.37l-.068.534c-.357-.43-.857-.645-1.495-.645zm.487 1.472c.408 0 .704.14.889.42v2.577c-.19.275-.49.414-.9.414a.892.892 0 01-.793-.44c-.19-.291-.285-.69-.285-1.191 0-.579.098-1.02.29-1.324.193-.303.458-.456.799-.456z" fill="#F8F8F8"/></svg>
